X:1
T:Ich ruf zu dir, Herr Jesu Christ
T:Ich ruf zu dir, Herr Jesu Christ
T:BWV 639
T:Johann Sebastian Bach
T:Public Domain
T:Public Domain
T:Public Domain
C:Johann Sebastian Bach
Z:Public Domain
%%score { 1 | 2 | 3 }
L:1/8
Q:1/4=30
M:4/4
K:Ab
V:1 treble nm="Pipe Organ"
V:2 bass 
V:3 bass 
V:1
 !5!c2 | !3!A2 B2 A>G F>G | !3!A/!4!B/!1!A/!2!B/ TB3/2A/4B/4 !fermata!c2 !3!c>!4!d | %3
 !5!e2{d} c>B A2 !2!B!1!c |1 !2!d2- d/e/4f/4Pd/c/ !fermata!c2 :|2 %5
 d2- d/e/4f/4Pd/c/ !fermata!c2 !3!_e2 || !4!f2 ePd/4c/4d/ c!3!BAB | c2 B2 !fermata!A2 c2 | %8
 !4!c2 !5!c2 B2 A2 | G4 !fermata!!1!F4 | !4!A2 G2 F4 | !fermata!E6 E2 | !2!A2 A2 B2 B2 | %13
 !fermata!!4!c6 d2 | c2 B2 A2[Q:1/4=27] !1!F>G |[Q:1/4=24] A2[Q:1/4=21] G2[Q:1/4=18] !fermata!F2 |] %16
V:2
 (!5!A,/!3!C/F/=E/) | %1
 (!1!F/!2!C/!3!A,/!5!F,/) (!4!G,/!3!B,/!2!D/!1!C/) (!5!F,/!3!A,/!1!C/!2!B,/) !3!A,/!5!F,/!4!A,/!2!C/ | %2
[K:treble] !1!F/!4!=E/!3!F/!2!A/ !1!G/F/E/F/ (!1!E/!2!C/G,/!3!B,/) (!5!A,/!3!C/!1!F/!2!A/) | %3
 (!3!G/!5!E/A/!1!G/) !2!A/!5!E/!3!F/_G/ (!3!F/!5!D/F/!2!A/) (!1!=G/!4!D/!5!C/!2!_G/) |1 %4
 (!1!F/!5!B,/!4!D/!2!F/) (!1!B/!2!A/!1!G/!2!A/) !1!G/!4!C/!1!=E/!4!B,/ :|2 %5
 (!1!F/!5!B,/!4!D/!2!F/) (!1!B/!2!A/!1!G/!2!A/) (!1!G/!4!B,/!5!A,/!1!F/) (!5!G,/!2!D/!4!A,/!1!C/) || %6
 !5!A,/C/B,/D/ (!5!B,/D/A/G/) (A/!4!E/!5!D/!1!G/) (!5!C/F/!1!A/G/) | %7
 (!1!A/!2!E/A,/!2!_G/) (!1!F/!4!A,/G,/!2!D/) (!3!C/!5!A,/!4!C/!2!E/) (!1!=G/!4!C/!5!B,/G/) | %8
 !5!=A,/!3!C/!1!F/!2!G/ !1!=A/!3!F/!4!E/A/ !5!D/!2!G/!1!_A/!2!G/ !5!C/!2!F/!1!G/!2!F/ | %9
 (!4!D/!2!F/!1!G/!2!F/) (!1!=E/!4!B,/!2!D/!3!C/) (!5!A,/!3!C/F/E/) (F/!2!C/!3!A,/!5!F,/) | %10
 (!4!B,/!1!F/!2!G/!1!F/) !5!B,/E/F/E/ !4!C/E/F/!2!E/ !1!=D/!5!G,/!3!=B,/!1!D/ | %11
[K:bass] !5!G,/!2!C/!1!E/!2!D/ (G,/B,/!2!D/!1!C/) !5!E,/!3!A,/!1!C/!2!B,/ D/!2!B,/E,/D/ | %12
 !5!F,/!3!A,/!2!D/!1!C/ !5!F,/!3!A,/!1!C/!2!B,/ !5!F,/!3!A,/!2!B,/!4!A,/ !5!G,/!4!B,/!2!D/!3!C/ | %13
[K:treble] !5!A,/!4!C/E/A/ !5!E/!2!B/!1!c/!2!B/ !1!=A/!3!E/!2!_G/!5!=A,/ !4!B,/!1!=G/!5!_A,/!1!F/ | %14
 !5!G,/!2!=E/!1!F/!2!_E/ !5!F,/!2!D/!1!E/!2!D/ !5!E,/!1!C/!3!D/!4!C/ !5!B,/!2!F/!1!G/!2!F/ | %15
 !4!=D/!2!F/!1!G/!2!F/ !1!=E/!2!_D/!3!B,/!5!G,/ !4!=A,/!2!C/!1!F |] %16
V:3
"_" F,,F,, |"^" F,F,F,"_"=E,"^" F,F,"^"F,"^"_E, |"_" D,D,D,D, C,C,"^"F,"_"F, | %3
"^" CCCC CCB,"^"=A, |1"^" B,A,G,F, =E,C, :|2"^" B,A,G,F,"_" =E,"^"F,"_"C,C, || %6
"_" D,D,"_"E,E,"^" A,"_"E,"^"F,"_"D, |"^" E,"_"C,"_"D,"^"E,"_" A,,A,,=E,,E,, | %8
"_" F,,F,,"^"F,F,"^" F,"_"=E,"^"F,"_"D, |"_" B,,G,,"^"C,"_"C,"_" D,D,D,D, | %10
"_" =D,D,"^"E,E,"_" =A,,A,,"_"=B,,B,, |"^" C,C,"_"B,,B,, A,,A,,G,,G,, | %12
"_" F,,"_"F,,"_"E,,E,, =D,,D,,E,,E,, |"^" A,,A,,"_"_G,,G,, F,,F,,"^"B,,B,, | %14
"^" B,,"_"A,,A,,G,, G,,F,,"^"D,D, |"_" =B,,B,,"^"C,C,"_" F,,2 |] %16

